build/img/instagram.svg

<svg width="22" height="22" viewBox="0 0 22 22" fill="none" xmlns="http://www.w3.org/2000/svg">
<path d="M21.9399 6.46808C21.8884 5.29913 21.6993 4.49549 21.4285 3.79912C21.1492 3.05995 20.7194 2.39817 20.1563 1.84802C19.6062 1.28932 18.9401 0.855181 18.2094 0.580193C17.509 0.309403 16.7096 0.12037 15.5406 0.0688308C14.363 0.0129267 13.9891 0 11.0022 0C8.01526 0 7.64139 0.0129267 6.46808 0.0644659C5.29913 0.116005 4.49549 0.305206 3.79929 0.575828C3.05995 0.855181 2.39817 1.28495 1.84802 1.84802C1.28932 2.39817 0.855348 3.06431 0.580193 3.79493C0.309403 4.49549 0.12037 5.29477 0.0688308 6.46371C0.0129267 7.64139 0 8.01526 0 11.0022C0 13.9891 0.0129267 14.363 0.0644659 15.5363C0.116005 16.7052 0.305206 17.5089 0.575996 18.2052C0.855348 18.9444 1.28932 19.6062 1.84802 20.1563C2.39817 20.715 3.06431 21.1492 3.79493 21.4242C4.49549 21.695 5.29477 21.884 6.46388 21.9355C7.63703 21.9872 8.01106 22 10.998 22C13.9849 22 14.3588 21.9872 15.5321 21.9355C16.701 21.884 17.5047 21.695 18.2009 21.4242C19.6794 20.8525 20.8483 19.6836 21.42 18.2052C21.6906 17.5047 21.8798 16.7052 21.9313 15.5363C21.9829 14.363 21.9958 13.9891 21.9958 11.0022C21.9958 8.01526 21.9914 7.64139 21.9399 6.46808ZM19.9587 15.4503C19.9114 16.5248 19.7309 17.105 19.5805 17.4918C19.2108 18.4502 18.4502 19.2108 17.4918 19.5805C17.105 19.7309 16.5206 19.9114 15.4503 19.9586C14.2899 20.0103 13.9419 20.023 11.0065 20.023C8.07117 20.023 7.71879 20.0103 6.5626 19.9586C5.48816 19.9114 4.90797 19.7309 4.52118 19.5805C4.04423 19.4042 3.61009 19.1249 3.25771 18.7596C2.8924 18.4028 2.61305 17.9731 2.43678 17.4961C2.28636 17.1093 2.10589 16.5248 2.05871 15.4547C2.00701 14.2943 1.99425 13.9461 1.99425 11.0107C1.99425 8.07536 2.00701 7.72298 2.05871 6.56696C2.10589 5.49253 2.28636 4.91234 2.43678 4.52554C2.61305 4.04843 2.8924 3.61446 3.26208 3.26191C3.61865 2.8966 4.04843 2.61725 4.52554 2.44114C4.91234 2.29072 5.49689 2.11025 6.56696 2.06291C7.72735 2.01137 8.07553 1.99844 11.0107 1.99844C13.9505 1.99844 14.2985 2.01137 15.4547 2.06291C16.5291 2.11025 17.1093 2.29072 17.4961 2.44114C17.9731 2.61725 18.4072 2.8966 18.7596 3.26191C19.1249 3.61865 19.4042 4.04843 19.5805 4.52554C19.7309 4.91234 19.9114 5.49673 19.9587 6.56696C20.0103 7.72735 20.0232 8.07536 20.0232 11.0107C20.0232 13.9461 20.0103 14.2899 19.9587 15.4503Z" fill="#9D9EBF"/>
<path d="M11.0021 5.35071C7.88205 5.35071 5.35059 7.882 5.35059 11.0022C5.35059 14.1224 7.88205 16.6537 11.0021 16.6537C14.1223 16.6537 16.6536 14.1224 16.6536 11.0022C16.6536 7.882 14.1223 5.35071 11.0021 5.35071ZM11.0021 14.6682C8.97797 14.6682 7.3361 13.0265 7.3361 11.0022C7.3361 8.97792 8.97797 7.33622 11.0021 7.33622C13.0264 7.33622 14.6681 8.97792 14.6681 11.0022C14.6681 13.0265 13.0264 14.6682 11.0021 14.6682Z" fill="#9D9EBF"/>
<path d="M18.197 5.12748C18.197 5.85622 17.6061 6.4471 16.8772 6.4471C16.1485 6.4471 15.5576 5.85622 15.5576 5.12748C15.5576 4.39858 16.1485 3.80786 16.8772 3.80786C17.6061 3.80786 18.197 4.39858 18.197 5.12748Z" fill="#9D9EBF"/>
</svg>

<svg width="22" height="22" fill="none" xmlns="http://www.w3.org/2000/svg"><path d="M21.94 6.468c-.052-1.169-.24-1.973-.512-2.669a5.368 5.368 0 0 0-1.272-1.951A5.413 5.413 0 0 0 18.21.58c-.7-.27-1.5-.46-2.668-.511C14.363.013 13.989 0 11.002 0s-3.36.013-4.534.064C5.3.116 4.495.305 3.8.576c-.739.28-1.4.709-1.951 1.272A5.417 5.417 0 0 0 .58 3.795c-.27.7-.46 1.5-.511 2.669C.013 7.64 0 8.015 0 11.002s.013 3.361.064 4.534c.052 1.17.241 1.973.512 2.67.28.738.713 1.4 1.272 1.95.55.559 1.216.993 1.947 1.268.7.271 1.5.46 2.669.512 1.173.051 1.547.064 4.534.064s3.36-.013 4.534-.064c1.169-.052 1.973-.241 2.669-.512a5.628 5.628 0 0 0 3.219-3.219c.27-.7.46-1.5.511-2.669.052-1.173.065-1.547.065-4.534s-.005-3.36-.056-4.534zm-1.981 8.982c-.048 1.075-.228 1.655-.378 2.042a3.65 3.65 0 0 1-2.09 2.088c-.386.15-.97.331-2.04.379-1.161.051-1.51.064-4.444.064-2.936 0-3.288-.013-4.444-.064-1.075-.048-1.655-.228-2.042-.378a3.386 3.386 0 0 1-1.263-.821 3.42 3.42 0 0 1-.821-1.264c-.15-.387-.331-.971-.378-2.041-.052-1.16-.065-1.509-.065-4.444 0-2.936.013-3.288.065-4.444.047-1.074.227-1.655.378-2.041.176-.478.455-.912.825-1.264a3.415 3.415 0 0 1 1.264-.82c.386-.151.97-.332 2.041-.38 1.16-.05 1.509-.064 4.444-.064 2.94 0 3.288.013 4.444.065 1.074.047 1.654.228 2.041.378.477.176.911.456 1.264.82.365.358.644.787.82 1.265.15.386.331.97.379 2.041.051 1.16.064 1.508.064 4.444 0 2.935-.013 3.279-.064 4.44z" fill="#9D9EBF"/><path d="M11.002 5.35a5.653 5.653 0 0 0-5.651 5.652 5.653 5.653 0 0 0 5.651 5.652 5.653 5.653 0 0 0 5.652-5.652 5.653 5.653 0 0 0-5.652-5.651zm0 9.318a3.667 3.667 0 1 1 .001-7.333 3.667 3.667 0 0 1 0 7.333zm7.195-9.541a1.32 1.32 0 1 1-2.64 0 1.32 1.32 0 0 1 2.64 0z" fill="#9D9EBF"/></svg>
